BookReader/images/icon_search_button.svg

<?xml version="1.0" encoding="UTF-8" standalone="no"?>
<svg width="19px" height="19px" viewBox="0 0 19 19" version="1.1" xmlns="http://www.w3.org/2000/svg" xmlns:xlink="http://www.w3.org/1999/xlink" aria-labelledby="searchButtonTitleID searchButtonDescID">
  <title id="searchButtonTitleID">Search</title>
  <desc id="searchButtonDescID">An illustration of a magnifying glass</desc>
  <g stroke="none" stroke-width="1" fill="#fff" fill-rule="evenodd">
    <path d="M18.4140875,16.661358 L12.573725,10.8930988 C13.363175,9.8171358 13.835325,8.4988642 13.835325,7.07081481 C13.835325,6.99762963 13.8251125,6.92749383 13.813475,6.85782716 C13.82535,6.78722222 13.8355625,6.71591358 13.8355625,6.64155556 C13.8355625,3.03859259 10.867525,0.107197531 7.219525,0.107197531 C7.1546875,0.107197531 7.092225,0.117283951 7.0297625,0.125962963 C6.966825,0.117283951 6.9048375,0.107197531 6.84,0.107197531 C3.1917625,0.107197531 0.223725,3.03859259 0.223725,6.64155556 C0.223725,6.71474074 0.2337,6.78487654 0.245575,6.85477778 C0.2334625,6.92538272 0.2234875,6.99645679 0.2234875,7.07081481 C0.2234875,10.6737778 3.1912875,13.6054074 6.839525,13.6054074 C6.9043625,13.6054074 6.9665875,13.595321 7.029525,13.5864074 C7.0919875,13.595321 7.153975,13.6054074 7.21905,13.6054074 C8.45595,13.6054074 9.6109125,13.262 10.6022375,12.6758148 L16.525725,18.5261728 C16.7867375,18.783963 17.1282625,18.9125062 17.470025,18.9125062 C17.8117875,18.9125062 18.1537875,18.7837284 18.414325,18.5261728 C18.9356375,18.0112963 18.9356375,17.1764691 18.4140875,16.661358 L18.4140875,16.661358 Z M7.029525,10.9866914 C6.9665875,10.9777778 6.9046,10.9676914 6.839525,10.9676914 C4.664025,10.9676914 2.894175,9.21969136 2.894175,7.07104938 C2.894175,6.9978642 2.8842,6.9277284 2.872325,6.85806173 C2.8844375,6.78745679 2.8944125,6.71614815 2.8944125,6.64179012 C2.8944125,4.49314815 4.6645,2.74514815 6.84,2.74514815 C6.9046,2.74514815 6.966825,2.7352963 7.0297625,2.72661728 C7.092225,2.7352963 7.15445,2.74514815 7.219525,2.74514815 C9.395025,2.74514815 11.164875,4.49314815 11.164875,6.64179012 C11.164875,6.71497531 11.1750875,6.78511111 11.186725,6.85501235 C11.17485,6.92561728 11.1644,6.99669136 11.1644,7.07104938 C11.1644,9.21969136 9.39455,10.9676914 7.21905,10.9676914 C7.153975,10.9676914 7.09175,10.9777778 7.029525,10.9866914 L7.029525,10.9866914 Z"></path>
  </g>
</svg>

<svg width="19" height="19" xmlns="http://www.w3.org/2000/svg" aria-labelledby="searchButtonTitleID searchButtonDescID"><path d="M18.414 16.661l-5.84-5.768a6.44 6.44 0 001.261-3.822c0-.073-.01-.144-.022-.213.012-.07.023-.142.023-.216 0-3.603-2.968-6.535-6.616-6.535-.065 0-.128.01-.19.019-.063-.009-.125-.019-.19-.019C3.192.107.224 3.04.224 6.642c0 .073.01.143.022.213-.013.07-.023.141-.023.216 0 3.603 2.968 6.534 6.617 6.534.064 0 .127-.01.19-.019.062.01.124.02.189.02a6.626 6.626 0 003.383-.93l5.924 5.85c.26.258.602.387.944.387.342 0 .684-.13.944-.387a1.307 1.307 0 000-1.865zM7.03 10.987c-.063-.01-.125-.02-.19-.02-2.176 0-3.946-1.747-3.946-3.896 0-.073-.01-.143-.022-.213a1.27 1.27 0 00.022-.216c0-2.149 1.77-3.897 3.946-3.897.065 0 .127-.01.19-.018.062.008.124.018.19.018 2.175 0 3.945 1.748 3.945 3.897 0 .073.01.143.022.213-.012.07-.023.142-.023.216 0 2.149-1.77 3.897-3.945 3.897-.065 0-.127.01-.19.019z" fill="#fff" fill-rule="evenodd"/></svg>
